X: 233
T: the Irish Widow
B: C. & S. Thompson, "The Compleat Tutor for the Fife" c.1760 p.23 #3
S: http://imslp.org/wiki/The_Compleat_Tutor_for_the_Fife_(Anonymous)
Z: 2014 John Chambers <jc:trillian.mit.edu>
M: 6/8
L: 1/8
K: G
% - - - - - - - - - - - - - - - - - - - - - - - - -
B/c/ |\
dBG dBG | {F}E3 e3 | dcB ABG | (G3 F2)B/c/ |\
dBG dBG | {F}E3 e3 | dcB AGF | (E3 G2) :|
|: B/c/ |\
ded gab | ded dBc | ded gab | ded dBc |\
dBG dBG | {F}E3 e3 | dcB AGF | (E3 G2) :|
% - - - - - - - - - - - - - - - - - - - - - - - - -
